symbols/web/brightness_5/materialsymbolssharp/brightness_5_wght600fill1_48px.svg

<svg xmlns="http://www.w3.org/2000/svg" height="48" width="48"><path d="m24.05 46.85-6.85-6.6H7.75V30.8L1 24l6.75-6.8V7.75h9.45l6.85-6.8 6.75 6.8h9.45v9.45l6.8 6.8-6.8 6.8v9.45H30.8Zm0-10.6q5.1 0 8.675-3.575Q36.3 29.1 36.3 23.95q0-5.1-3.575-8.675Q29.15 11.7 24.05 11.7q-5.15 0-8.725 3.575-3.575 3.575-3.575 8.675 0 5.1 3.6 8.7 3.6 3.6 8.7 3.6Z"/></svg>

<svg xmlns="http://www.w3.org/2000/svg" height="48" width="48"><path d="M24.05 46.85 17.2 40.25H7.75V30.8L1 24L7.75 17.2V7.75H17.2L24.05 0.95L30.8 7.75H40.25V17.2L47.05 24L40.25 30.8V40.25H30.8ZM24.05 33.2Q20.1 33.2 17.45 30.55Q14.8 27.9 14.8 23.95Q14.8 20.05 17.45 17.375Q20.1 14.7 24.05 14.7Q27.95 14.7 30.625 17.375Q33.3 20.05 33.3 23.95Q33.3 27.9 30.625 30.55Q27.95 33.2 24.05 33.2ZM24.05 41.3 29.15 36.3H36.3V29.15L41.45 24L36.3 18.85V11.7H29.15L24.05 6.55L18.85 11.7H11.7V18.85L6.6 24L11.75 29.15V36.25H18.8Z"/></svg>
